brandFactory_export/3.Masa/Gasolina_3Masa.svg

<?xml version="1.0" encoding="UTF-8"?>
<svg width="24px" height="24px" viewBox="0 0 24 24" version="1.1" xmlns="http://www.w3.org/2000/svg" xmlns:xlink="http://www.w3.org/1999/xlink">
    <title>3.Masa/Gasolina_3Masa</title>
    <g id="Symbols" stroke="none" stroke-width="1" fill="none" fill-rule="evenodd">
        <g id="3.Masa/Gasolina_3Masa" fill="#5CB615" fill-rule="nonzero">
            <path d="M11.5731092,8.19159664 C11.5731092,8.94453782 11.0016807,9.58319328 10.3260504,9.58319328 L4.32605042,9.58319328 C3.65042017,9.58319328 3.07563025,8.94453782 3.07563025,8.19159664 L3.07563025,4.48403361 C3.07563025,3.74453782 3.65714286,3.09243697 4.32605042,3.09243697 L10.3260504,3.09243697 C10.9915966,3.09243697 11.5731092,3.74453782 11.5731092,4.48403361 L11.5731092,8.19159664 Z M22.205042,7.85882353 C22.205042,7.86890756 22.1983193,7.8789916 22.1983193,7.88907563 L22.1983193,8.0605042 C22.1714286,8.60168067 21.9764706,9.48571429 20.6252101,9.5092437 L20.4470588,9.51260504 L20.3798319,9.51260504 C18.8033613,9.48907563 18.8033613,8.26554622 18.8033613,7.80504202 C18.8033613,7.34453782 18.8033613,6.12773109 20.3495798,6.11764706 L20.4033613,6.11764706 L20.5983193,6.1210084 C21.1764706,6.13445378 21.5394958,6.30252101 21.7781513,6.53109244 L21.8352941,6.59159664 C22.1983193,6.99495798 22.2016807,7.54957983 22.2016807,7.82521008 C22.205042,7.82857143 22.205042,7.84537815 22.205042,7.85882353 L22.205042,7.85882353 Z M23.6470588,7.9394958 C23.6470588,7.89579832 23.6537815,7.85882353 23.6537815,7.81512605 C23.6537815,6.7697479 23.3378151,6.07731092 22.9109244,5.60672269 C22.907563,5.60336134 22.907563,5.60336134 22.907563,5.6 L22.897479,5.58991597 C22.8672269,5.55630252 22.8369748,5.52605042 22.8033613,5.49579832 L17.6033613,0.242016807 C17.3243697,-0.0403361345 16.8638655,-0.0470588235 16.5781513,0.235294118 C16.292437,0.517647059 16.292437,0.974789916 16.5714286,1.25714286 L19.9596639,4.6789916 C19.0655462,4.77983193 17.3512605,5.30084034 17.3512605,7.79159664 C17.3512605,10.7092437 19.7243697,10.9378151 20.3563025,10.9478992 L20.4436975,10.9478992 C20.5142857,10.9478992 20.5848739,10.9478992 20.6453782,10.9445378 C20.9210084,10.9378151 21.5697479,10.887395 22.194958,10.5579832 L22.2016807,20.2756303 C22.2016807,21.9193277 21.0554622,22.1882353 20.3731092,22.2016807 L20.1546218,22.2016807 C19.4722689,22.1915966 18.3294118,21.9260504 18.3294118,20.2621849 L18.3294118,15.6134454 C18.3294118,13.7983193 16.8504202,12.3226891 15.0319328,12.3226891 L14.4571429,12.3226891 L14.4571429,1.70084034 C14.4571429,0.83697479 13.6504202,0.0470588235 12.7663866,0.0470588235 L1.7210084,0.0470588235 C0.83697479,0.0470588235 0.0302521008,0.83697479 0.0302521008,1.70084034 L0.0302521008,21.9966387 C0.0302521008,22.8773109 0.820168067,23.6504202 1.7210084,23.6504202 L12.7663866,23.6504202 C13.6672269,23.6504202 14.4571429,22.8773109 14.4571429,21.9966387 L14.4571429,13.7714286 L15.0319328,13.7714286 C16.0504202,13.7714286 16.8806723,14.5983193 16.8806723,15.6134454 L16.8806723,20.2621849 C16.8806723,22.7294118 18.6352941,23.6302521 20.2285714,23.6504202 L20.4,23.6504202 C21.8991597,23.6235294 23.6504202,22.7226891 23.6504202,20.2756303 L23.6470588,7.9394958 L23.6470588,7.9394958 Z" id="Gasolina_3Masa"></path>
        </g>
    </g>
</svg>

<svg width="24" height="24" viewBox="0 0 24 24" xmlns="http://www.w3.org/2000/svg"><path d="M11.573 8.192c0 .753-.571 1.391-1.247 1.391h-6c-.676 0-1.25-.638-1.25-1.391V4.484c0-.74.581-1.392 1.25-1.392h6c.666 0 1.247.653 1.247 1.392v3.708zm10.632-.333c0 .01-.007.02-.007.03v.172c-.027.54-.222 1.425-1.573 1.448l-.178.004h-.067c-1.577-.024-1.577-1.247-1.577-1.708 0-.46 0-1.677 1.547-1.687h.053l.195.003c.578.013.941.182 1.18.41l.057.06c.363.404.367.959.367 1.234.003.004.003.02.003.034zm1.442.08c0-.043.007-.08.007-.124 0-1.045-.316-1.738-.743-2.208-.003-.004-.003-.004-.003-.007l-.01-.01a1.243 1.243 0 00-.095-.094l-5.2-5.254a.726.726 0 00-1.025-.007.722.722 0 00-.007 1.022L19.96 4.68c-.894.1-2.609.622-2.609 3.113 0 2.917 2.373 3.146 3.005 3.156h.088c.07 0 .14 0 .201-.003.276-.007.925-.058 1.55-.387l.007 9.718c0 1.643-1.147 1.912-1.829 1.926h-.218c-.683-.01-1.826-.276-1.826-1.94v-4.649a3.297 3.297 0 00-3.297-3.29h-.575V1.7c0-.864-.807-1.654-1.69-1.654H1.72c-.884 0-1.69.79-1.69 1.654v20.296c0 .88.79 1.653 1.69 1.653h11.045c.901 0 1.691-.773 1.691-1.653V13.77h.575c1.018 0 1.849.827 1.849 1.842v4.65c0 2.466 1.754 3.367 3.348 3.387h.171c1.5-.026 3.25-.927 3.25-3.374l-.003-12.337z" fill="#5CB615" fill-rule="nonzero"/></svg>
